X: 111
T: Prancing They Come
C: Teton Sioux band 1911-1914
N: Derived from sioux111.krn
O: South Dakota, U.S.A.
N: Teton Sioux Music by Frances Densmore, 1918
Z: transcribed to **kern format by Craig Sapp
L: 1/8
M: 3/4
Q: 1/4=58
K: D clef=bass
%%linebreak <none>
F2F2F3/ E/ [I:setbarnb 1]||  
[M:2/4]E DD2 ||  
[M:3/4]D2D2D3/ B,/ ||  
[M:2/4]B, A,A,2 ||  
[M:3/4]F,2B,2B,3/ B,/ ||  
[M:2/4]B, A,A,2 | 
F,2F,2 | 
A,< F, F,3/ F,/ | 
F,4 | 
F,4 | 
(3F, F, A,D2 ||  
[M:3/4]D< DD2D2 | 
B,2B,2B,3/ B,/ ||  
[M:2/4]B, A,A,2 ||  
[M:3/4]F,2B,2B,3/ B,/ ||  
[M:2/4]B, A,A,2 | 
F,2F,2 | 
A,< F, F,3/ F,/ | 
F,4 | 
F,4 |]  



